public/icon/icon-arrow-back.svg

<svg width="14" height="14" viewBox="0 0 14 14" fill="none" xmlns="http://www.w3.org/2000/svg">
<path fill-rule="evenodd" clip-rule="evenodd" d="M10.2835 1.82776C10.6017 2.22671 10.5649 2.83314 10.2012 3.18226L5.70367 7.5L10.2012 11.8177C10.5649 12.1669 10.6017 12.7733 10.2835 13.1722C9.96521 13.5712 9.41241 13.6116 9.04875 13.2624L3.79877 8.22235C3.6089 8.04008 3.5 7.77678 3.5 7.5C3.5 7.22322 3.6089 6.95992 3.79877 6.77765L9.04875 1.73755C9.41242 1.38843 9.96521 1.42882 10.2835 1.82776Z" fill="#020F19"/>
</svg>

<svg width="14" height="14" fill="none" xmlns="http://www.w3.org/2000/svg"><path fill-rule="evenodd" clip-rule="evenodd" d="M10.284 1.828a1.026 1.026 0 01-.083 1.354L5.704 7.5l4.497 4.318c.364.349.4.955.082 1.354a.822.822 0 01-1.234.09l-5.25-5.04A1.002 1.002 0 013.5 7.5a1 1 0 01.299-.722l5.25-5.04a.822.822 0 011.235.09z" fill="#020F19"/></svg>
